icon-themes/breeze_svg/cmd/32/helplinesvisible.svg

<svg viewBox="0 0 32 32" xmlns="http://www.w3.org/2000/svg"><path d="m6 5v1h1v-1zm0 2v1h1v-1zm0 2v1h1v-1zm0 2v1h1v-1zm0 2v1h1v-1zm0 2v1h1v-1zm0 2v1h1v-1zm0 2v1h1v-1zm0 2v1h1v-1zm0 2v1h1v-1zm-2 2v1h1v-1zm2 0v1h1v-1zm2 0v1h1v-1zm2 0v1h1v-1zm2 0v1h1v-1zm2 0v1h1v-1zm2 0v1h1v-1zm2 0v1h1v-1zm2 0v1h1v-1zm2 0v1h1v-1zm2 0v1h1v-1zm2 0v1h1v-1zm-20 2v1h1v-1z" fill="#4d4d4d"/></svg>

<svg xmlns="http://www.w3.org/2000/svg" viewBox="0 0 32 32">
 <path 
     style="fill:#4d4d4d" 
     d="M 6 5 L 6 6 L 7 6 L 7 5 L 6 5 z M 6 7 L 6 8 L 7 8 L 7 7 L 6 7 z M 6 9 L 6 10 L 7 10 L 7 9 L 6 9 z M 6 11 L 6 12 L 7 12 L 7 11 L 6 11 z M 6 13 L 6 14 L 7 14 L 7 13 L 6 13 z M 6 15 L 6 16 L 7 16 L 7 15 L 6 15 z M 6 17 L 6 18 L 7 18 L 7 17 L 6 17 z M 6 19 L 6 20 L 7 20 L 7 19 L 6 19 z M 6 21 L 6 22 L 7 22 L 7 21 L 6 21 z M 6 23 L 6 24 L 7 24 L 7 23 L 6 23 z M 4 25 L 4 26 L 5 26 L 5 25 L 4 25 z M 6 25 L 6 26 L 7 26 L 7 25 L 6 25 z M 8 25 L 8 26 L 9 26 L 9 25 L 8 25 z M 10 25 L 10 26 L 11 26 L 11 25 L 10 25 z M 12 25 L 12 26 L 13 26 L 13 25 L 12 25 z M 14 25 L 14 26 L 15 26 L 15 25 L 14 25 z M 16 25 L 16 26 L 17 26 L 17 25 L 16 25 z M 18 25 L 18 26 L 19 26 L 19 25 L 18 25 z M 20 25 L 20 26 L 21 26 L 21 25 L 20 25 z M 22 25 L 22 26 L 23 26 L 23 25 L 22 25 z M 24 25 L 24 26 L 25 26 L 25 25 L 24 25 z M 26 25 L 26 26 L 27 26 L 27 25 L 26 25 z M 6 27 L 6 28 L 7 28 L 7 27 L 6 27 z "
     />
</svg>
